X:1
T:Olivant, 76.76 D
T:Olivant, 76.76 D
T:Walter Olivant Wilkinson, 1895
T:Public Domain Courtesy of the Cyber Hymnal™
C:Walter Olivant Wilkinson, 1895
Z:Public Domain
Z:Courtesy of the Cyber Hymnal™
%%score ( 1 2 ) ( 3 4 )
L:1/8
Q:1/4=110
M:4/4
K:G
V:1 treble 
V:2 treble 
V:3 bass 
V:4 bass 
V:1
 D2 | [DG]2 [DG]2 [EA]2 [DA]2 | ([DB]2 [Ge]2) [Fd]2 c2 | [GB]2 [GB]2 [GA]2 [GB]2 | A6 D2 | %5
 [DG]2 [DG]2 [EA]2 [DA]2 | ([DB]2 [Ge]2) [Fd]2 [GB]2 | [FA]2 [FA]2 [GB]2 [G^c]2 | [Fd]6 [Ad]2 | %9
 [Ee]2 [EB]2 [Ec]2 [Fe]2 x2 | (d2 z [GB]2) G2 x2 | [GB]2 [GB]2 [GA]2 [GB]2 | A6 [CD]2 | %13
 [B,G]2 [=FG]2 [EA]2 [^FA]2 | (B2 e2) [Fd]2 [G^c]2 | [Gd]2 G2 [GA]2 [FA]2 | G6 |] %17
V:2
 D2 | x8 | x6 (GF) | x8 | (F2 G2 F2) D2 | x8 | x8 | x8 | x8 | x10 | G3 (c2 F) x G2 | x8 | %12
 (F2 G2 F2) x2 | x8 | G4 x4 | x2 G2 x4 | G6 |] %17
V:3
 [D,D]2 | [G,B,]2 [G,B,]2 [G,C]2 [F,C]2 | B,4 B,2 [A,D]2 | [G,D]2 [E,E]2 [A,,^C]2 [A,,C]2 | %4
 ([D,D]2 [E,^C]2 [D,D]2) [F,=C]2 | [G,B,]2 [G,B,]2 [G,C]2 [F,C]2 | B,4 B,2 [G,D]2 | %7
 [A,D]2 [A,F]2 [A,F]2 [A,E]2 | [D,D]6 [F,A,]2 | [^G,B,]2 [G,B,]2 A,2 [D,C]2 x2 | %10
 (B,2 A,D) [G,,G,D]2 [G,B,]2 x | [E,^C]2 [E,C]2 [A,,C]2 [A,,C]2 | ([D,D]2 [^C,E]2 [D,D]2) [D,F,]2 | %13
 [E,G,]2 [D,B,]2 [C,C]2 [D,C]2 | B,4 B,2 [E,^A,]2 | [D,B,]2 [B,,D]2 [C,E]2 (DC) | [G,B,]6 |] %17
V:4
 x2 | x8 | (G,2 E,2) B,2 x2 | x8 | x8 | x8 | (G,2 E,2) B,2 x2 | x8 | x8 | D,,8- A,2 | [D,,D,]4 x5 | %11
 x8 | x8 | x8 | (G,2 E,2) B,2 x2 | x6 D,2 | x6 |] %17

